X:1
T:title
M:4/4
Q:speed
L:1/8
R:Reel
K:C
c2D2a3E | _a' | d'3c'4A | F2f4gg' | b'4e3b' | b'3F2a2d' | D3f3ga | d'3c'4d' | 